actions/24/mail-meeting-request-reply.svg

<?xml version="1.0" encoding="UTF-8" standalone="no"?>
<svg
   width="24"
   height="24"
   version="1.1"
   id="svg9"
   sodipodi:docname="mail-meeting-request-reply.svg"
   inkscape:version="1.1.2 (0a00cf5339, 2022-02-04)"
   xmlns:inkscape="http://www.inkscape.org/namespaces/inkscape"
   xmlns:sodipodi="http://sodipodi.sourceforge.net/DTD/sodipodi-0.dtd"
   xmlns="http://www.w3.org/2000/svg"
   xmlns:svg="http://www.w3.org/2000/svg">
  <sodipodi:namedview
     id="namedview11"
     pagecolor="#000000"
     bordercolor="#666666"
     borderopacity="1.0"
     inkscape:pageshadow="2"
     inkscape:pageopacity="0"
     inkscape:pagecheckerboard="0"
     showgrid="false"
     inkscape:zoom="28.416667"
     inkscape:cx="11.982405"
     inkscape:cy="11.964809"
     inkscape:window-width="1482"
     inkscape:window-height="967"
     inkscape:window-x="0"
     inkscape:window-y="29"
     inkscape:window-maximized="1"
     inkscape:current-layer="g7" />
  <defs
     id="defs3">
    <style
       id="current-color-scheme"
       type="text/css">
   .ColorScheme-Text { color:#eeeeec; } .ColorScheme-Highlight { color:#367bf0; } .ColorScheme-NeutralText { color:#ffcc44; } .ColorScheme-PositiveText { color:#3db47e; } .ColorScheme-NegativeText { color:#dd4747; }
  </style>
  </defs>
  <g
     transform="translate(4,4)"
     id="g7">
    <path
       style="fill:currentColor"
       class="ColorScheme-Text"
       d="m 14,12 v 2 h 2 v -2 z m 0,-5 v 4 h 2 V 7 Z M 2,2 C 0,2 0,4 0,4 v 8 c 0,0 0,2 2,2 H 13 V 7 c 0,-0.2368 -0.136,0.1709 0,0 L 12.498568,6.7505442 8.6142518,8.6928506 v 0 L 7.4676855,8.7338428 2,6 V 4.5942737 L 2.6656385,4.3328192 v 0 l 4.8699727,2.4349864 0.9532019,-0.012212 v 0 L 13.302764,4.3486178 14,4.7354636 v 0 V 6 h 2 V 4 c 0,0 0,-2 -2,-2 z"
       id="path5"
       sodipodi:nodetypes="ccccccccccsccscsccccccccccccccccccss" />
  </g>
</svg>

<svg xmlns="http://www.w3.org/2000/svg" width="24" height="24" version="1.1">
 <defs>
  <style id="current-color-scheme" type="text/css">
   .ColorScheme-Text { color:#eeeeec; } .ColorScheme-Highlight { color:#367bf0; } .ColorScheme-NeutralText { color:#ffcc44; } .ColorScheme-PositiveText { color:#3db47e; } .ColorScheme-NegativeText { color:#dd4747; }
  </style>
 </defs>
 <g transform="translate(4,4)">
  <path style="fill:currentColor" class="ColorScheme-Text" d="M 14,12 V 14 H 16 V 12 Z M 14,7 V 11 H 16 V 7 Z M 2,2 C 0,2 0,4 0,4 V 12 C 0,12 0,14 2,14 H 13 V 7 C 13,6.7632 13.094,6.5557 13.23,6.3848 L 8,9 2,6 V 4 L 8,7 14,4 V 6 H 16 V 4 C 16,4 16,2 14,2 Z"/>
 </g>
</svg>
